public/avatar/body/214.svg

<svg xmlns:xlink="http://www.w3.org/1999/xlink" height="82" width="84.85" xmlns="http://www.w3.org/2000/svg"><g transform="translate(37.4 42.25)"><use height="38" transform="translate(-11.95 -17.45)" width="32.05" xlink:href="#a"/><use height="38.95" transform="translate(-12.45 -17.95)" width="33.05" xlink:href="#b"/><use height="32.45" transform="translate(-12.85 -2.6)" width="33.7" xlink:href="#c"/></g><defs><path d="M27.35 7.4q2.15 4.15 3.55 8.75 1.45 4.7 1.15 9.5-.35 4.95-4.2 8.1-3.8 3.2-8.75 4.05l-2.6.2q-3.6 0-7.05-1.15-4.65-1.6-7.1-5.5Q-.2 27.4.05 23q.2-4.4 2-9.3Q3.85 8.75 7 5.05 10.1 1.3 14.7.1l1.8-.1q1.9.05 3.7.8 4.75 2.05 7.15 6.6" fill="#de9494" fill-rule="evenodd" transform="translate(-.05)" id="d"/><path d="M27.35 7.4Q24.95 2.85 20.2.8 17.55-.3 14.7.1 10.1 1.3 7 5.05q-3.15 3.7-4.95 8.65-1.8 4.9-2 9.3-.25 4.4 2.3 8.35 2.45 3.9 7.1 5.5 4.65 1.55 9.65.95 4.95-.85 8.75-4.05 3.85-3.15 4.2-8.1.3-4.8-1.15-9.5-1.4-4.6-3.55-8.75Z" fill="none" stroke="#000" stroke-linecap="round" stroke-linejoin="round" transform="translate(.45 .5)" id="e"/><use height="38" width="32.05" xlink:href="#d" id="a"/><use height="38.95" width="33.05" xlink:href="#e" id="b"/><g id="c" fill-rule="evenodd"><path d="m14 11.6.55 1 .8.8.9.85 1.85 1.1-.05.55.15 1.45.05.65.15 2.75q-.1.9.35 2.65v1.05l.1 1.05.15.45v.55q.15 1.5-.2 1.85l-1.3.35-1.5.25-3.2.55-3.05.35-2.05-.05-2.65-.05-1.7.1-1.5-.05-2.75-.05-2.3-.1-2-.3-1.95-.25-1.35-.35-1.2-.8q-.55-.65-.25-1.4l.55-1.2.15-1.6.5-2-.05-.75-.25-2.7-.15-1.2v-.6l.3-.4 1.7-1.35.65-.85 1.5-1.8.25-1.1.1-1.25q0-.85-.15-1.2l-.15-.3-.05-.4.1-.75q.2-.35 1.45-.85l.9-.2 7.2-.55 2-.1 2.95.1 2.1.4q1.25.35 1.65.7l.25.95-.1.55v1.2q0 1.1.55 2.3" fill="#020100" transform="translate(12.85 2.6)"/><path d="m12.9 11.9 1.8 3.1 1.15.5.95.1.4 1.75.05 4.5q0 1.05.35 3.15l-.25 2.5-2.35.45-3.4.35-8.65.5-7.05-.35-2.4-.4-.8-.2-1.05-.2q-.35-.35-.15-.65l.2-.7.3-1.45q.3-2.05.15-3.15l-.05-3.55-.15-.65-.05-.4v-.4l.1-.4.25-.3.55-.15q.35 0 .85-.4l1.15-1.55 1.05-1.85.4-2.2q.1-.7-.05-1.25l-.35-1.2q.7-.35 4.35-.75l4.55-.2 4.95.15 1.9.3q1.15.3 1.1 1.2-.3 2.75.2 3.8" fill="#f9e1aa" transform="translate(12.85 2.6)"/><path d="m10.85 11.75.3.7.1.4.55.45.8.65.2.65-.6.45-1.95 1.85-.5.35-.65.3-.65.8-.3.35h-.2l-.55-.15-1.3-.15-1 .2-1.05.4-1.95.35-.65-.25-.8-.5-.6-.45h-.5L-1.3 18l-.75-.5q-.25-.35 0-.85l.75-1.7q.45-.75.25-1.5l-.3-.95q-.1-.35-.35-.45h.2l-.1-.2-.25-.3-.2-.35.1-.2L-.2 9.75.25 8.6q.15-.5.8-.4.65.15 1.1.7l.55.6.7-.05.7-.05.45.2.75-.25 1.6-1q.6-.3.95-.3h.65l.75.05-.2.55q-.1.35.95.85.45.5-.35 1.35l.5.3.7.6" fill="#c6aa71" transform="translate(12.85 2.6)"/><path d="M.35 10.95q.25-.25 1.05-.25l1.65.45q.6.25 1.05 0l.7-.45 1.5-.75q.1-.1.65-.3h.45l.2.55h.6l-.05.4q-.15.3.05.5.35.3 1.25.6.15.2-.45 1.4-.15.25-.05.5l.65.6.3.6-.45.6-.7.5-1.2.25-.7.9q-.3.3-.75 0l-.35-.2-.95.35-1.05.4-.8-.3-1.05-.55-.95-.1q-.55-.1-.8-.4-.4-.5 0-1.55l.25-1.2v-.7l-.15-.55q-.25-.95.1-1.3" fill="#9e8557" transform="translate(12.85 2.6)"/><path d="m19.4 11.5.15 1.15-.05 1.3q-.05.75-1.85 1.15l-1.15.35-2.45.4-6.6.4-2.55.15-1.25-.1-4.4.1-1.6-.1-1.35-.05-5.15-.55-1.1-.25-.75-.3-.3-.65-.2-.75-.2-.85q-.3-1.15.3-1.5l1.45-.3 2.55.05 2.5.3 2.8.2 1.3.05 9.75-.4 2.8-.15 5.25-.3 1.2.05q.8.1.9.6" fill="#020100" transform="translate(12.85 2.6)"/><path d="M18.75 12q.25.6.15 2l-.25.3-.6.2-1.25.3-3.1.4-7.2.25H3.95l-13-.4-1.15-.35-.45-1.1q-.3-.7-.05-1.25.25-.7.85-.65l-.15-.15.2.1.4.1.5.1 1.2.1 1.4.05 12 .35 2-.1 4-.15 4.25-.35 1.9-.1.6-.05.3.4" fill="#6d3503" transform="translate(12.85 2.6)"/><path d="M13.15 7.5v-.05l-.65.45-.75-.05-.65-.45.25-.7.15-.45.75-1 3.05-3.3.35-.5L18.9-2.2l.4-.25h.2l.35.05.55.5.25.3.2.7-.05.4v.45l-.1.3-.1.2-.5.6-1 1-.4.4-.45.4-.8.7-.75.55-.25.35L15.2 5.6 13.6 7l-.45.5" fill="#020100" transform="translate(12.85 2.6)"/><path d="m18.9-.95.25-.5.15-.2.1-.2v-.1l.6.25.15.75v.8L19.9.6l-7.2 6.6-.1.2-.85-.45-.05-.05 1.65-1.65.55-.65 1.25-1.3L18.2-.15l.7-.8" fill="#f9e1aa" transform="translate(12.85 2.6)"/><path d="m-11.15-2.15.5.75 2.8 3.1 2.8 3 .85 1.1.8 1.05.25.4q.2.4 0 .5l-.15.05-.1.15-.2.15-.4.1q-.55 0-1.1-.45L-9.45 4.1l-1-1-.35-.45-.4-.4-.4-.55-1.25-1.8.05-.7.2-.75.35-.6.6-.4q.4-.15.5.4" fill="#020100" transform="translate(12.85 2.6)"/><path d="m-11.2-1.35.4.65 2.5 2.95 1.25 1.3L-3.6 7.2h-.05l-.85.45-.15-.2-.8-.85-6.4-5.75-.2-.7V-.7l.15-.7.45-.45v.05l.1.25.15.2" fill="#f9e1aa" transform="translate(12.85 2.6)"/><path d="M5.9 24.65q.1 1.1.65 1.4l.25.15.8.5 1.25.25q1.05.1 1.5-.35l.6-.85.3-1.1v-.7l.15-.9.5.45-.05.25v.35l.1.7.25.5.5.35 1.1.6 1 .15.8-1.15.65-1.5-.05-1h.65l.4.7.25.6-.05.7.1 1.05-.2 1.15v.4l-.2.25-.7.25-.7.15-4.2.25-.85.05-1.6.2-1.95.15-1.75.1-5.2.1-3.55-.25-2.35-.3-2.2-.5-.65-.15q-.25-.2-.15-.7l.25-.55v-.3l.15-.4.15-.35-.05-.15.05-.2v-.4l.1-.35.15-.35v-.4q.1-.05.25.25v.2l.1.2-.05.35v.4l-.05.4-.05.4q.25.55.65.25l.1-.3.1-.45.25-.3.3-.4.5-1.25.1-.4.15-.4.25.05-.1.3.1.4-.1.8.8.9.65 1.1.8.3q.2.05.85.45l1.05.3.7.05.6.3h.4l.3-.45.4-.45.2-.65-.1-.45-.1-.4-.4-.9.3.05.4.15.15.4.2.55.85.65.7.65q.35.45.9.5l.5-.05.35-.45.25-.7.15-.65v-1.1l-.05-.2-.1-.2.25-.2.25.45.05.7" fill="#e5052b" transform="translate(12.85 2.6)"/><path d="M6.25 23.5q-.2.1-.45-.4l-.15-.65-.05-.7.15-.2q.1 0 .25.15v.45l.35.55.05.5-.15.35v-.05m-2.6-1.75q-.25-1.1.3-.65l.1.3-.25.7-.15-.45v.1m-8.2.6q-.65-1.1-.25-1.45.6-.5 1 .3.1.3-.25.9-.4.55-.5.25m17.6.9-.35-.7q-.2-.55-.05-.85.2-.45.8-.3.85.35.7 1.05l-.55.5-.55.3m-2.1-2.1q0-.95.35-1.05.3.4.05.85-.3.6-.4.2m4.4-1.85q-.2-.8.1-.9l.4.3q.15.4-.2.9l-.25-.2-.05-.1m-1.6 5.15.15.05.4.2.25.3q.3.7-.35.6l-.5-.45q-.35-.5.05-.7m-7.3.7.65.1q1.05.7.7 1-.35 0-.95-.5l-.4-.6m-4.05-.9h.05l.35.4.3.5v.25q-.1.25-.35-.2-.45-.7-.35-.95m-6.1.95-.05-.1.5.05q.5.35.4.85-.2.05-.6-.3-.4-.35-.25-.5" fill="#e5052b" transform="translate(12.85 2.6)"/><path d="m-2.4 25.55-.1-.15.7.1q.8.2.8.85 0 .85-.95.35-1-.75-.45-1.15M.15 26q.25-.15.25.3 0 .6-.3.6l-.15-.55v-.05l.2-.3m-1.7-3-.15-.05.4.1q.25.25.1.7l-.65.05-.05-.5.35-.3" fill="#e5052b" transform="translate(12.85 2.6)"/><path d="M-2.7 12.2H-1l.5.1v.35l.15 1.4v.85l-.05.25.05.25-.5-.1-2.9.05-.45-.15-.05-.25.15-2.55.05-.25 1.35.05" fill="#8c4613" transform="translate(12.85 2.6)"/><path d="M-2.95 12.15h1.1l.2.05h.15l.05 2.85.05.3h-1.65l.1-.35-.05-1.65.05-.4v-.8" fill="#b2642f" transform="translate(12.85 2.6)"/><path d="m13.55 11.95.75-.1h1.45l.05.15v.55l.5 2.2.05.15h-.2l-.2.05-2.4.25h-.35l-.2.05h-.2l-.75.1h-.95l-.05-.2L11 13.5l-.05-.3v-.3l.05-.25v-.55h.7l.2-.05 1.65-.1" fill="#8c4613" transform="translate(12.85 2.6)"/><path d="m12.65 12 .35-.1.45-.05h.85l.1.3v.2l.3 1 .1.5v.25l.05.2.1.75-.5.1-1.3.05-.25.05v-.15l-.05-.1-.05-.35-.05-1.1v-.9l-.1-.65" fill="#b2642f" transform="translate(12.85 2.6)"/></g></defs></svg>

<?xml version="1.0" encoding="UTF-8" standalone="no"?>
<svg xmlns:xlink="http://www.w3.org/1999/xlink" height="82.0px" width="84.85px" xmlns="http://www.w3.org/2000/svg">
  <g transform="matrix(1.0, 0.0, 0.0, 1.0, 37.4, 42.25)">
    <use height="38.0" transform="matrix(1.0, 0.0, 0.0, 1.0, -11.95, -17.45)" width="32.05" xlink:href="#sprite0"/>
    <use height="38.95" transform="matrix(1.0, 0.0, 0.0, 1.0, -12.45, -17.95)" width="33.05" xlink:href="#sprite1"/>
    <use height="32.45" transform="matrix(1.0, 0.0, 0.0, 1.0, -12.85, -2.6)" width="33.7" xlink:href="#shape2"/>
  </g>
  <defs>
    <g id="sprite0" transform="matrix(1.0, 0.0, 0.0, 1.0, -0.05, 0.0)">
      <use height="38.0" transform="matrix(1.0, 0.0, 0.0, 1.0, 0.05, 0.0)" width="32.05" xlink:href="#shape0"/>
    </g>
    <g id="shape0" transform="matrix(1.0, 0.0, 0.0, 1.0, -0.05, 0.0)">
      <path d="M27.35 7.4 Q29.5 11.55 30.9 16.15 32.35 20.85 32.05 25.65 31.7 30.6 27.85 33.75 24.05 36.95 19.1 37.8 L16.5 38.0 Q12.9 38.0 9.45 36.85 4.8 35.25 2.35 31.35 -0.2 27.4 0.05 23.0 0.25 18.6 2.05 13.7 3.85 8.75 7.0 5.05 10.1 1.3 14.7 0.1 L16.5 0.0 Q18.4 0.05 20.2 0.8 24.95 2.85 27.35 7.4" fill="#de9494" fill-rule="evenodd" stroke="none"/>
    </g>
    <g id="sprite1" transform="matrix(1.0, 0.0, 0.0, 1.0, 0.45, 0.5)">
      <use height="38.95" transform="matrix(1.0, 0.0, 0.0, 1.0, -0.45, -0.5)" width="33.05" xlink:href="#shape1"/>
    </g>
    <g id="shape1" transform="matrix(1.0, 0.0, 0.0, 1.0, 0.45, 0.5)">
      <path d="M27.35 7.4 Q24.95 2.85 20.2 0.8 17.55 -0.3 14.7 0.1 10.1 1.3 7.0 5.05 3.85 8.75 2.05 13.7 0.25 18.6 0.05 23.0 -0.2 27.4 2.35 31.35 4.8 35.25 9.45 36.85 14.1 38.4 19.1 37.8 24.05 36.95 27.85 33.75 31.7 30.6 32.05 25.65 32.35 20.85 30.9 16.15 29.5 11.55 27.35 7.4 Z" fill="none" stroke="#000000" stroke-linecap="round" stroke-linejoin="round" stroke-width="1.0"/>
    </g>
    <g id="shape2" transform="matrix(1.0, 0.0, 0.0, 1.0, 12.85, 2.6)">
      <path d="M14.0 11.6 L14.55 12.6 15.35 13.4 16.25 14.25 18.1 15.35 18.05 15.9 18.2 17.35 18.25 18.0 18.4 20.75 Q18.3 21.65 18.75 23.4 L18.75 24.45 18.85 25.5 19.0 25.95 19.0 26.5 Q19.15 28.0 18.8 28.35 L17.5 28.7 16.0 28.95 12.8 29.5 9.75 29.85 7.7 29.8 5.05 29.75 3.35 29.85 1.85 29.8 -0.9 29.75 -3.2 29.65 -5.2 29.35 -7.15 29.1 -8.5 28.75 -9.7 27.95 Q-10.25 27.3 -9.95 26.55 L-9.4 25.35 -9.25 23.75 -8.75 21.75 -8.8 21.0 -9.05 18.3 -9.2 17.1 -9.2 16.5 -8.9 16.1 -7.2 14.75 -6.55 13.9 -5.05 12.1 -4.8 11.0 -4.7 9.75 Q-4.7 8.9 -4.85 8.55 L-5.0 8.25 -5.05 7.85 -4.95 7.1 Q-4.75 6.75 -3.5 6.25 L-2.6 6.05 4.6 5.5 6.6 5.4 9.55 5.5 11.65 5.9 Q12.9 6.25 13.3 6.6 L13.55 7.55 13.45 8.1 13.45 9.3 Q13.45 10.4 14.0 11.6" fill="#020100" fill-rule="evenodd" stroke="none"/>
      <path d="M12.9 11.9 L14.7 15.0 15.85 15.5 16.8 15.6 17.2 17.35 17.25 21.85 Q17.25 22.9 17.6 25.0 L17.35 27.5 15.0 27.95 11.6 28.3 2.95 28.8 -4.1 28.45 -6.5 28.05 -7.3 27.85 -8.35 27.65 Q-8.7 27.3 -8.5 27.0 L-8.3 26.3 -8.0 24.85 Q-7.7 22.8 -7.85 21.7 L-7.9 18.15 -8.05 17.5 -8.1 17.1 -8.1 16.7 -8.0 16.3 -7.75 16.0 -7.2 15.85 Q-6.85 15.85 -6.35 15.45 L-5.2 13.9 -4.15 12.05 -3.75 9.85 Q-3.65 9.15 -3.8 8.6 L-4.15 7.4 Q-3.45 7.05 0.2 6.65 L4.75 6.45 9.7 6.6 11.6 6.9 Q12.75 7.2 12.7 8.1 12.4 10.85 12.9 11.9" fill="#f9e1aa" fill-rule="evenodd" stroke="none"/>
      <path d="M10.85 11.75 L11.15 12.45 11.25 12.85 11.8 13.3 12.6 13.95 12.8 14.6 12.2 15.05 10.25 16.9 9.75 17.25 9.1 17.55 8.45 18.35 8.15 18.7 7.95 18.7 7.4 18.55 6.1 18.4 5.1 18.6 4.05 19.0 2.1 19.35 1.45 19.1 0.65 18.6 0.05 18.15 -0.45 18.15 -1.3 18.0 -2.05 17.5 Q-2.3 17.15 -2.05 16.65 L-1.3 14.95 Q-0.85 14.2 -1.05 13.45 L-1.35 12.5 Q-1.45 12.15 -1.7 12.05 L-1.5 12.05 -1.6 11.85 -1.85 11.55 -2.05 11.2 -1.95 11.0 -0.2 9.75 0.25 8.6 Q0.4 8.1 1.05 8.2 1.7 8.35 2.15 8.9 L2.7 9.5 3.4 9.45 4.1 9.4 4.55 9.6 5.3 9.35 6.9 8.35 Q7.5 8.05 7.85 8.05 L8.5 8.05 9.25 8.1 9.05 8.65 Q8.95 9.0 10.0 9.5 10.45 10.0 9.65 10.85 L10.15 11.15 10.85 11.75" fill="#c6aa71" fill-rule="evenodd" stroke="none"/>
      <path d="M0.35 10.95 Q0.6 10.7 1.4 10.7 L3.05 11.15 Q3.65 11.4 4.1 11.15 L4.8 10.7 6.3 9.95 Q6.4 9.85 6.95 9.65 L7.4 9.65 7.6 10.2 8.2 10.2 8.15 10.6 Q8.0 10.9 8.2 11.1 8.55 11.4 9.45 11.7 9.6 11.9 9.0 13.1 8.85 13.35 8.95 13.6 L9.6 14.2 9.9 14.8 9.45 15.4 8.75 15.9 7.55 16.15 6.85 17.05 Q6.55 17.35 6.1 17.05 L5.75 16.85 4.8 17.2 3.75 17.6 2.95 17.3 1.9 16.75 0.95 16.65 Q0.4 16.55 0.15 16.25 -0.25 15.75 0.15 14.7 L0.4 13.5 0.4 12.8 0.25 12.25 Q0.0 11.3 0.35 10.95" fill="#9e8557" fill-rule="evenodd" stroke="none"/>
      <path d="M19.4 11.5 L19.55 12.65 19.5 13.95 Q19.45 14.7 17.65 15.1 L16.5 15.45 14.05 15.85 7.45 16.25 4.9 16.4 3.65 16.3 -0.75 16.4 -2.35 16.3 -3.7 16.25 -8.85 15.7 -9.95 15.45 -10.7 15.15 -11.0 14.5 -11.2 13.75 -11.4 12.9 Q-11.7 11.75 -11.1 11.4 L-9.65 11.1 -7.1 11.15 -4.6 11.45 -1.8 11.65 -0.5 11.7 9.25 11.3 12.05 11.15 17.3 10.85 18.5 10.9 Q19.3 11.0 19.4 11.5" fill="#020100" fill-rule="evenodd" stroke="none"/>
      <path d="M18.75 12.0 Q19.0 12.6 18.9 14.0 L18.65 14.3 18.05 14.5 16.8 14.8 13.7 15.2 6.5 15.45 3.95 15.45 -9.05 15.05 -10.2 14.7 -10.65 13.6 Q-10.95 12.9 -10.7 12.35 -10.45 11.65 -9.85 11.7 L-10.0 11.55 -9.8 11.65 -9.4 11.75 -8.9 11.85 -7.7 11.95 -6.3 12.0 5.7 12.35 7.7 12.25 11.7 12.1 15.95 11.75 17.85 11.65 18.45 11.6 18.75 12.0" fill="#6d3503" fill-rule="evenodd" stroke="none"/>
      <path d="M13.15 7.5 L13.15 7.45 12.5 7.9 11.75 7.85 11.1 7.4 11.35 6.7 11.5 6.25 12.25 5.25 15.3 1.95 15.65 1.45 18.9 -2.2 19.3 -2.45 19.5 -2.45 19.85 -2.4 20.4 -1.9 20.65 -1.6 20.85 -0.9 20.8 -0.5 20.8 -0.05 20.7 0.25 20.6 0.45 20.1 1.05 19.1 2.05 18.7 2.45 18.25 2.85 17.45 3.55 16.7 4.1 16.45 4.45 15.2 5.6 13.6 7.0 13.15 7.5" fill="#020100" fill-rule="evenodd" stroke="none"/>
      <path d="M18.9 -0.95 L19.15 -1.45 19.3 -1.65 19.4 -1.85 19.4 -1.95 20.0 -1.7 20.15 -0.95 20.15 -0.15 19.9 0.6 12.7 7.2 12.6 7.4 11.75 6.95 11.7 6.9 13.35 5.25 13.9 4.6 15.15 3.3 18.2 -0.15 18.9 -0.95" fill="#f9e1aa" fill-rule="evenodd" stroke="none"/>
      <path d="M-11.15 -2.15 L-10.65 -1.4 -7.85 1.7 -5.05 4.7 -4.2 5.8 -3.4 6.85 -3.15 7.25 Q-2.95 7.65 -3.15 7.75 L-3.3 7.8 -3.4 7.95 -3.6 8.1 -4.0 8.2 Q-4.55 8.2 -5.1 7.75 L-9.45 4.1 -10.45 3.1 -10.8 2.65 -11.2 2.25 -11.6 1.7 -12.85 -0.1 -12.8 -0.8 -12.6 -1.55 -12.25 -2.15 -11.65 -2.55 Q-11.25 -2.7 -11.15 -2.15" fill="#020100" fill-rule="evenodd" stroke="none"/>
      <path d="M-11.2 -1.35 L-10.8 -0.7 -8.3 2.25 -7.05 3.55 -3.6 7.2 -3.65 7.2 -4.5 7.65 -4.65 7.45 -5.45 6.6 -11.85 0.85 -12.05 0.15 -12.05 -0.7 -11.9 -1.4 -11.45 -1.85 -11.45 -1.8 -11.35 -1.55 -11.2 -1.35" fill="#f9e1aa" fill-rule="evenodd" stroke="none"/>
      <path d="M5.9 24.65 Q6.0 25.75 6.55 26.05 L6.8 26.2 7.6 26.7 8.85 26.95 Q9.9 27.05 10.35 26.6 L10.95 25.75 11.25 24.65 11.25 23.95 11.4 23.05 11.9 23.5 11.85 23.75 11.85 24.1 11.95 24.8 12.2 25.3 12.7 25.65 13.8 26.25 14.8 26.4 15.6 25.25 16.25 23.75 16.2 22.75 16.85 22.75 17.25 23.45 17.5 24.05 17.45 24.75 17.55 25.8 17.35 26.95 17.35 27.35 17.15 27.6 16.45 27.85 15.75 28.0 11.55 28.25 10.7 28.3 9.1 28.5 7.15 28.65 5.4 28.75 0.2 28.85 -3.35 28.6 -5.7 28.3 -7.9 27.8 -8.55 27.65 Q-8.8 27.45 -8.7 26.95 L-8.45 26.4 -8.45 26.1 -8.3 25.7 -8.15 25.35 -8.2 25.2 -8.15 25.0 -8.15 24.6 -8.05 24.25 -7.9 23.9 -7.9 23.5 Q-7.8 23.45 -7.65 23.75 L-7.65 23.95 -7.55 24.15 -7.6 24.5 -7.6 24.9 -7.65 25.3 -7.7 25.7 Q-7.45 26.25 -7.05 25.95 L-6.95 25.65 -6.85 25.2 -6.6 24.9 -6.3 24.5 -5.8 23.25 -5.7 22.85 -5.55 22.45 -5.3 22.5 -5.4 22.8 -5.3 23.2 -5.4 24.0 -4.6 24.9 -3.95 26.0 -3.15 26.3 Q-2.95 26.35 -2.3 26.75 L-1.25 27.05 -0.55 27.1 0.05 27.4 0.45 27.4 0.75 26.95 1.15 26.5 1.35 25.85 1.25 25.4 1.15 25.0 0.75 24.1 1.05 24.15 1.45 24.3 1.6 24.7 1.8 25.25 2.65 25.9 3.35 26.55 Q3.7 27.0 4.25 27.05 L4.75 27.0 5.1 26.55 5.35 25.85 5.5 25.2 5.5 24.1 5.45 23.9 5.35 23.7 5.6 23.5 5.85 23.95 5.9 24.65" fill="#e5052b" fill-rule="evenodd" stroke="none"/>
      <path d="M6.25 23.5 Q6.05 23.6 5.8 23.1 L5.65 22.45 5.6 21.75 5.75 21.55 Q5.85 21.55 6.0 21.7 L6.0 22.15 6.35 22.7 6.4 23.2 6.25 23.55 6.25 23.5" fill="#e5052b" fill-rule="evenodd" stroke="none"/>
      <path d="M3.65 21.75 Q3.4 20.65 3.95 21.1 L4.05 21.4 3.8 22.1 3.65 21.65 3.65 21.75" fill="#e5052b" fill-rule="evenodd" stroke="none"/>
      <path d="M-4.55 22.35 Q-5.2 21.25 -4.8 20.9 -4.2 20.4 -3.8 21.2 -3.7 21.5 -4.05 22.1 -4.45 22.65 -4.55 22.35" fill="#e5052b" fill-rule="evenodd" stroke="none"/>
      <path d="M13.05 23.25 L12.7 22.55 Q12.5 22.0 12.65 21.7 12.85 21.25 13.45 21.4 14.3 21.75 14.15 22.45 L13.6 22.95 13.05 23.25" fill="#e5052b" fill-rule="evenodd" stroke="none"/>
      <path d="M10.95 21.15 Q10.95 20.2 11.3 20.1 11.6 20.5 11.35 20.95 11.05 21.55 10.95 21.15" fill="#e5052b" fill-rule="evenodd" stroke="none"/>
      <path d="M15.35 19.3 Q15.15 18.5 15.45 18.4 L15.85 18.7 Q16.0 19.1 15.65 19.6 L15.4 19.4 15.35 19.3" fill="#e5052b" fill-rule="evenodd" stroke="none"/>
      <path d="M13.75 24.45 L13.9 24.5 14.3 24.7 14.55 25.0 Q14.85 25.7 14.2 25.6 L13.7 25.15 Q13.35 24.65 13.75 24.45" fill="#e5052b" fill-rule="evenodd" stroke="none"/>
      <path d="M6.45 25.15 L7.1 25.25 Q8.15 25.95 7.8 26.25 7.45 26.25 6.85 25.75 L6.45 25.15" fill="#e5052b" fill-rule="evenodd" stroke="none"/>
      <path d="M2.4 24.25 L2.45 24.25 2.8 24.65 3.1 25.15 3.1 25.4 Q3.0 25.65 2.75 25.2 2.3 24.5 2.4 24.25" fill="#e5052b" fill-rule="evenodd" stroke="none"/>
      <path d="M-3.7 25.2 L-3.75 25.1 -3.25 25.15 Q-2.75 25.5 -2.85 26.0 -3.05 26.05 -3.45 25.7 -3.85 25.35 -3.7 25.2" fill="#e5052b" fill-rule="evenodd" stroke="none"/>
      <path d="M-2.4 25.55 L-2.5 25.4 -1.8 25.5 Q-1.0 25.7 -1.0 26.35 -1.0 27.2 -1.95 26.7 -2.95 25.95 -2.4 25.55" fill="#e5052b" fill-rule="evenodd" stroke="none"/>
      <path d="M0.15 26.0 Q0.4 25.85 0.4 26.3 0.4 26.9 0.1 26.9 L-0.05 26.35 -0.05 26.3 0.15 26.0" fill="#e5052b" fill-rule="evenodd" stroke="none"/>
      <path d="M-1.55 23.0 L-1.7 22.95 -1.3 23.05 Q-1.05 23.3 -1.2 23.75 L-1.85 23.8 -1.9 23.3 -1.55 23.0" fill="#e5052b" fill-rule="evenodd" stroke="none"/>
      <path d="M-2.7 12.2 L-1.6 12.2 -1.0 12.2 -0.5 12.3 -0.5 12.65 -0.35 14.05 -0.35 14.9 -0.4 15.15 -0.35 15.4 -0.85 15.3 -3.75 15.35 -4.2 15.2 -4.25 14.95 -4.1 12.4 -4.05 12.15 -2.7 12.2" fill="#8c4613" fill-rule="evenodd" stroke="none"/>
      <path d="M-2.95 12.15 L-1.85 12.15 -1.65 12.2 -1.5 12.2 -1.45 15.05 -1.4 15.35 -3.05 15.35 -2.95 15.0 -3.0 13.35 -2.95 12.95 -2.95 12.15" fill="#b2642f" fill-rule="evenodd" stroke="none"/>
      <path d="M13.55 11.95 L14.3 11.85 15.75 11.85 15.8 12.0 15.8 12.55 16.3 14.75 16.35 14.9 16.15 14.9 15.95 14.95 13.55 15.2 13.2 15.2 13.0 15.25 12.8 15.25 12.05 15.35 11.1 15.35 11.05 15.15 11.0 13.5 10.95 13.2 10.95 12.9 11.0 12.65 11.0 12.1 11.7 12.1 11.9 12.05 13.55 11.95" fill="#8c4613" fill-rule="evenodd" stroke="none"/>
      <path d="M12.65 12.0 L13.0 11.9 13.45 11.85 14.3 11.85 14.4 12.15 14.4 12.35 14.7 13.35 14.8 13.85 14.8 14.1 14.85 14.3 14.95 15.05 14.45 15.15 13.15 15.2 12.9 15.25 12.9 15.1 12.85 15.0 12.8 14.65 12.75 13.55 12.75 12.65 12.65 12.0" fill="#b2642f" fill-rule="evenodd" stroke="none"/>
    </g>
  </defs>
</svg>
